X:6
T:Green Dragon's Hornpipe. Le4.006
B:L.Leadley MS#4 c1850
Z:Village Music Project, 2016 Steve Mansfield
M:4/4
L:1/8
Q:2/4=75
N:* Bar line at this position in Mss
K:F
cB | ABcA F2f>e | defd c2c>B | ABcA dcBA | B2G2 G2c>B |
ABcB A2f>e | defd c2ga | bagf agfe | g2f2 f2 :|
|: fg | afaf gege | dfff cfff | dfff "_perhaps there is a bar missing"cfff |
afaf "*"gege |afaf gege | gagf ecde | f2a2 f2 :|

